X:1     %Music
T:Bard of Eve
B:Singing Together, Spring 1976, BBC Publications
F:http://www.folkinfo.org/songs
M:4/4     %Meter
L:1/8     %
K:F
A2 A2 D3 D |A2 A2 G2 G2 |A3/2B/ AG (FE) FG |A2 d2 d4 |
w:Heard my love a wild bird call-ing, La, la, la, la, la,_ la, la, la, la, la. 
A2 A2 D3 D |A2 A2 G2 G2 |A3/2B/ AG (FE) FG |A2 d2 d4 |
w:Tree-top high the notes were fall-ing, La, la, la, la, la,_ la, la, la, la, la. 
f2 f2 e3 f |d2 d2 c=B A2 |f3/2f/ ff e3 e |d2 d2 (d=B) A2 |
w:Bright and sweet that wood-land ser-en-ade, La, la, la, la, la, la, la, la, la,_ la. 
A2 A2 D3 D |A2 A2 G2 G2 |A3/2B/ AA (FE) FG |A2 d2 d4 |]
w:Thought my love the song en-thrall-ing. La, la, la, la, la,_ la, la, la, la, la. 